!!!!SEGMENT: pl-kk--kk-i-3--006-004_anonim--officium-primum-de-annuntiatione-de-bmv-tollite-portas.krn
!!!cenid: 15xx:581
!!!COM: Anonim
!!!COM-rismID: pe30004985
!!!CDT:
!!!CNT:
!!!OPR: Officium Primum de Annuntiatione de BMV
!!!OTL: Tollite portas
!!!OMV: 004
!!!PDT:
!!!AGN:
!!!SMS-siglum: PL-Kk
!!!SMS-shelfmark: Kk.I.3
!!!SMS-shelfwork: 006-004 M
!!!SMS-variant:
!!!SMS-altvar:
!!!NIFC-rismSourceID: 1001145501
!!!NIFC-islandoraID: pl-kk:1170
!!!URL-pdf-islandora: https://repozytorium.nifc.pl/islandora/object/pl-kk%3A1170/datastream/PDF/view
!!!URL-scan: https://polish.musicsources.pl/pl/lokalizacje/galeria/rekopisy/5919 @EN{Scan on Polish Music Herritage in Open Access Website} @PL{Skany w portalu Dziedzictwo Muzyki Polskiej w otwartym dostępie}
!!!ONB-nifc: UWAGA: Discantus (s. 19r-20v, skan 0021-0023), Tenor (s. 16v-17v, skan 0189-0190), Bassus (s. 15v-17v, skan 0319-0321). Następna część: Alleluia
!!!AIN: 1 bass 1 empty 1 tenor
!!!key:
**kern	**text	**text	**kern	**text	**kern	**text
*part3	*part3	*part3	*part2	*part2	*part1	*part1
*staff3	*staff3	*staff3	*staff2	*staff2	*staff1	*staff1
*Ibass	*	*	*Itenor	*	*Iempty	*
*I"Bassus	*	*	*I"Tenor	*	*I"Discantus	*
*I'B	*	*	*I'T	*	*I'S	*
*clefF4	*	*	*clefC5	*	*clefC4	*
*k[b-]	*	*	*k[]	*	*k[b-]	*
*B-:	*	*	*B-:	*	*B-:	*
*M2/1	*	*	*M2/1	*	*M2/1	*
*met(C)	*	*	*met(C)	*	*met(C)	*
=1-	=1-	=1-	=1-	=1-	=1-	=1-
!	!	!	!LO:TX:t=P:problem=brak znaku przykluczowego	!	!	!
1C/	Tol-	.	1C/	To-	1c\	Tol-
*	*	*	*lig	*	*	*
2FF/	.	.	1A\	.	2A/	.
1BB-/	.	.	.	.	1d\	.
=2-	=2-	=2-	=2-	=2-	=2-	=2-
.	.	.	1D/	.	.	.
4AA/	.	.	.	.	4c/	.
4GG/	.	.	.	.	4B-/	.
*	*	*	*Xlig	*	*	*
2FF/	-lo-	.	1D/	-lli-	2A/	.
2GG/	.	.	.	.	2B-/	-li-
=3-	=3-	=3-	=3-	=3-	=3-	=3-
2FF/	te	.	1D/	-te	2A/	-te
2.BB-/	.	.	.	.	2.F/	por-
*	*	*	*lig	*	*	*
.	.	.	1F\	por-	.	.
4AA/	.	.	.	.	4G/	.
2FF/	por-	.	.	.	2A/	.
=4-	=4-	=4-	=4-	=4-	=4-	=4-
1GG/	.	.	1D/	.	2B-/	.
*	*	*	*	*	*2\right	*
.	.	.	.	.	2.d\	.
*	*	*	*Xlig	*	*	*
1GG/	.	.	1E/	.	.	.
.	.	.	.	.	4c/	.
.	.	.	.	.	2B-/	.
=5-	=5-	=5-	=5-	=5-	=5-	=5-
*	*	*	*lig	*	*	*
*	*	*	*	*	*custos:F	*
1FF/	.	.	1F\	.	2A/	.
!	!	!	!	!	!LO:LB:g=original	!
.	.	.	.	.	2.F/	.
2r	.	.	1D/	.	.	.
.	.	.	.	.	4G/	.
*2\right	*	*	*	*	*	*
2F\	.	.	.	.	4A/	.
.	.	.	.	.	4B-/	.
*	*	*	*Xlig	*	*	*
=6-	=6-	=6-	=6-	=6-	=6-	=6-
1G\	.	.	1C/	.	2.c\	.
.	.	.	.	.	4B-/	.
*	*	*	*lig	*	*	*
1D\	.	.	1F\	.	4A/	.
.	.	.	.	.	4G/	.
.	.	.	.	.	1F/	.
=7-	=7-	=7-	=7-	=7-	=7-	=7-
1G\	.	.	1C/	.	.	.
.	.	.	.	.	2E/	.
*	*	*	*Xlig	*	*	*
*custos:D	*	*	*	*	*	*
2F/	.	.	1D/	.	2F/	.
!LO:LB:g=original	!	!	!	!	!	!
2.D/	.	.	.	.	2.f\	.
=8-	=8-	=8-	=8-	=8-	=8-	=8-
.	.	.	1F\	.	.	.
4E/	.	.	.	.	4e\	.
2.F\	-tas	.	.	.	2.d\	.
.	.	.	1D/,	-tas	.	.
4E/	.	.	.	.	4e\	.
4D/	.	.	.	.	2f\	.
4C/	.	.	.	.	.	.
=9-	=9-	=9-	=9-	=9-	=9-	=9-
2BB-/	.	.	1F\	prin-	2d\	-tas
2AA/	prin-	.	.	.	2c\	.
2BB-/	.	.	1D/	.	2d\	prin-
2GG/	.	.	.	.	4c\	.
.	.	.	.	.	4B-\	.
=10-	=10-	=10-	=10-	=10-	=10-	=10-
2D/	.	.	1F\	.	2A/	.
2.BB-/	.	.	.	.	2.d\	.
.	.	.	1G\	.	.	.
4AA/	.	.	.	.	4c\	.
!	!	!	!	!	!LO:PB:g=original	!
*	*	*	*	*	*clefC3	*
2GG/	.	.	.	.	2B-/	.
=11-	=11-	=11-	=11-	=11-	=11-	=11-
2FF/	.	.	1A\	.	2c/	.
2.F\	.	.	.	.	2.A/	.
.	.	.	1F\	.	.	.
4E/	.	.	.	.	4B-/	.
1D\	-ci-	.	.	.	4c/	.
.	.	.	.	.	4d/	.
=12-	=12-	=12-	=12-	=12-	=12-	=12-
*	*	*	*lig	*	*	*
.	.	.	1E/	-ci-	4e\	.
.	.	.	.	.	4f\	.
2C/	.	.	.	.	4g\	.
.	.	.	.	.	4e/	.
2D/	.	.	1D/	.	2f/	.
2.F\	.	.	.	.	2.d/	ci-
*	*	*	*Xlig	*	*	*
=13-	=13-	=13-	=13-	=13-	=13-	=13-
*	*	*	*lig	*	*	*
.	.	.	1D/	-pes	.	.
4E/	.	.	.	.	4e/	.
2D/	-pes	.	.	.	2f\	.
*	*	*	*custos:F	*	*	*
1G\	.	.	1C/	.	1e\	.
*	*	*	*Xlig	*	*	*
!	!	!	!LO:LB:g=original	!	!	!
=14-	=14-	=14-	=14-	=14-	=14-	=14-
*custos:FF	*	*	*	*	*	*
*	*	*	*lig	*	*	*
2F/	.	.	1F\	.	2d/	.
!LO:LB:g=original	!	!	!	!	!	!
2FF/	.	.	.	.	1c\	.
1GG/	.	.	1D/	.	.	.
.	.	.	.	.	2B-/	-pes
*	*	*	*Xlig	*	*	*
=15-	=15-	=15-	=15-	=15-	=15-	=15-
2AA/	.	.	1C/,	.	2c/	.
2.FF/	.	.	.	.	2.A/	ve-
*	*	*	*lig	*	*	*
.	.	.	1C/	ve-	.	.
*	*	*	*	*	*custos:c	*
4GG/	.	.	.	.	4B-/	.
!	!	!	!	!	!LO:LB:g=original	!
2AA/	.	.	.	.	2c/	.
=16-	=16-	=16-	=16-	=16-	=16-	=16-
!	!	!	!LO:SIC:s:v=1BB-	!	!	!
2BB-/	ve-	.	1BB/	.	1d\	.
2GG/	.	.	.	.	.	.
*	*	*	*Xlig	*	*	*
1FF/	.	.	1C/	.	2c/	.
.	.	.	.	.	2.A/	.
=17-	=17-	=17-	=17-	=17-	=17-	=17-
*	*	*	*lig	*	*	*
2r	.	.	1D/	.	.	.
.	.	.	.	.	4G/	.
1F\	.	.	.	.	2F/	.
.	.	.	1C/	.	1G/	.
2E/	.	.	.	.	.	.
*	*	*	*Xlig	*	*	*
=18-	=18-	=18-	=18-	=18-	=18-	=18-
2F/	.	.	1D/	.	2F/	.
2.D/	.	.	.	.	2.A/	-ſtras
*	*	*	*lig	*	*	*
.	.	.	1D/	-ſtras	.	.
4E/	.	.	.	.	4G/	.
1F\	-ſtras	.	.	.	4F/	.
.	.	.	.	.	4E/	.
=19-	=19-	=19-	=19-	=19-	=19-	=19-
!	!	!	!LO:SIC:s:v=1BB-	!	!	!
.	.	.	1BB/	.	2D/	.
2G\	.	.	.	.	2d\	.
*	*	*	*Xlig	*	*	*
1E\	.	.	1C/	.	1e\	.
=20-	=20-	=20-	=20-	=20-	=20-	=20-
1D\	.	.	1D/	.	2f\	.
.	.	.	.	.	1d\	.
1AA/	.	.	1E/	.	.	.
.	.	.	.	.	2c/	.
=21-	=21-	=21-	=21-	=21-	=21-	=21-
2D/	.	.	1F\	.	2.d/	.
1C/	.	.	.	.	.	.
*	*	*	*	*	*custos:f	*
.	.	.	.	.	4e/	.
!	!	!	!	!	!LO:LB:g=original	!
.	.	.	1D/	.	1f\	.
*custos:C	*	*	*	*	*	*
2BB-/	.	.	.	.	.	.
!LO:PB:g=original	!	!	!	!	!	!
=22-	=22-	=22-	=22-	=22-	=22-	=22-
1C/	.	.	1C/	.	4e/	.
.	.	.	.	.	4d/	.
.	.	.	.	.	4c/	.
.	.	.	.	.	4B-/	.
2r	.	.	1D/	.	2A/	.
2F/	.	.	.	.	2.d/	.
=23-	=23-	=23-	=23-	=23-	=23-	=23-
1D\	.	.	1F\	.	.	.
.	.	.	.	.	4c/	.
.	.	.	.	.	4B-/	.
.	.	.	.	.	4A/	.
2E/	.	.	1G\	.	2G/	.
2C/	.	.	.	.	2.c/	.
=24-	=24-	=24-	=24-	=24-	=24-	=24-
2.F\	.	.	0F\	.	.	.
.	.	.	.	.	4B-/	.
.	.	.	.	.	4A/	.
4E/	.	.	.	.	4G/	.
4D/	.	.	.	.	2F/	.
4C/	.	.	.	.	.	.
1D\	.	.	.	.	1f\	.
=25-	=25-	=25-	=25-	=25-	=25-	=25-
.	.	.	1F\	.	.	.
4C/	.	.	.	.	4e\	.
4BB-/	.	.	.	.	4d/	.
*	*	*	*lig	*	*	*
2AA/	.	.	1F\	.	2c/	.
1BB-/	.	.	.	.	1d\	.
=26-	=26-	=26-	=26-	=26-	=26-	=26-
.	.	.	1F\	.	.	.
4AA/	.	.	.	.	4c/	.
4GG/	.	.	.	.	4B-/	.
*	*	*	*Xlig	*	*	*
2.FF/	.	.	1F\	et	2.A/	et.
*	*	*	*	*	*custos:c	*
4GG/	.	.	.	.	4B-/	.
!	!	!	!	!	!LO:LB:g=original	!
=27-	=27-	=27-	=27-	=27-	=27-	=27-
2AA/	.	.	1F\	e-	2c/	e-
2BB-/	et	.	.	.	2d/	-le-
2FF/	.	.	1F\	-le-	2c/	.
1F\	.	.	.	.	2.A/	-va-
=28-	=28-	=28-	=28-	=28-	=28-	=28-
.	.	.	1G\	.	.	.
.	.	.	.	.	4B-/	.
4E/	e-	.	.	.	4c/	.
*custos:C	*	*	*	*	*	*
4D/	.	.	.	.	4d/	.
!LO:LB:g=original	!	!	!	!	!	!
*	*	*	*lig	*	*	*
1C/	-le-	.	1G\	va-	2.e\	.
.	.	.	.	.	4f\	.
=29-	=29-	=29-	=29-	=29-	=29-	=29-
*	*	*	*custos:F	*	*	*
1C/	.	.	1E/	.	2g\	.
.	.	.	.	.	1c\	.
*	*	*	*Xlig	*	*	*
!	!	!	!LO:PB:g=original	!	!	!
*	*	*	*lig	*	*	*
2r	.	.	1F\	.	.	.
2.BB-/	-va-	.	.	.	2.d/	.
=30-	=30-	=30-	=30-	=30-	=30-	=30-
.	.	.	1D/	.	.	.
4C/	.	.	.	.	4e\	.
2D/	-mi-	.	.	.	2f\	.
*	*	*	*Xlig	*	*	*
*	*	*	*lig	*	*	*
1AA/	.	.	1C/	-mi-	1e\	.
=31-	=31-	=31-	=31-	=31-	=31-	=31-
2r	.	.	1D/	.	2d/	-mi-
1D\	.	.	.	.	1f\	.
.	.	.	1D/	-ni	.	.
4C/	.	.	.	.	4e\	.
4BB-/	.	.	.	.	4d\	.
=32-	=32-	=32-	=32-	=32-	=32-	=32-
*	*	*	*lig	*	*	*
*	*	*	*	*	*custos:d	*
2AA/	-ni	.	1F\	por-	2c/	-ni
!	!	!	!	!	!LO:LB:g=original	!
1BB-/	.	.	.	.	1d\	por-
.	.	.	1D/	.	.	.
4AA/	.	.	.	.	4c/	.
4GG/	.	.	.	.	4B-/	.
*	*	*	*Xlig	*	*	*
=33-	=33-	=33-	=33-	=33-	=33-	=33-
*	*	*	*lig	*	*	*
2FF/	.	.	1F\	.	2A/	.
2.BB-/	por-	.	.	.	2.B-/	.
.	.	.	1G\	.	.	.
4AA/	.	.	.	.	4c/	.
2.GG/	.	.	.	.	2.d/	.
=34-	=34-	=34-	=34-	=34-	=34-	=34-
.	.	.	1D/	.	.	.
4AA/	.	.	.	.	4c/	.
2BB-/	.	.	.	.	4B-/	.
.	.	.	.	.	4A/	.
*	*	*	*Xlig	*	*	*
1C/	.	.	1G\	.	2G/	.
.	.	.	.	.	2g\	.
=35-	=35-	=35-	=35-	=35-	=35-	=35-
2r	.	.	1A\	.	2f\	.
*custos:BB-	*	*	*	*	*	*
2AA/	.	.	.	.	2e\	.
*	*	*	*lig	*	*	*
!LO:LB:g=original	!	!	!	!	!	!
2BB-/	.	.	1F\	.	2d\	.
2AA/	.	.	.	.	2c/	.
=36-	=36-	=36-	=36-	=36-	=36-	=36-
2GG/	.	.	1D/	.	2B-/	.
2.FF/	.	.	.	.	1A/	.
*	*	*	*Xlig	*	*	*
*	*	*	*lig	*	*	*
.	.	.	1F\	-te	.	.
4GG/	.	.	.	.	.	.
4AA/	.	.	.	.	4G/	.
4BB-/	.	.	.	.	4F/	.
=37-	=37-	=37-	=37-	=37-	=37-	=37-
1C/	.	.	1E/	.	1G/	.
*	*	*	*Xlig	*	*	*
*	*	*	*lig	*	*	*
*	*	*	*	*	*custos:A	*
1FF/	-te	.	1F\	.	2F/	.
!	!	!	!	!	!LO:PB:g=original	!
*	*	*	*	*	*clefC4	*
.	.	.	.	.	2.A/	.
=38-	=38-	=38-	=38-	=38-	=38-	=38-
1r	.	.	1D/	.	.	.
.	.	.	.	.	4G/	.
.	.	.	.	.	2.F/	-te
*	*	*	*Xlig	*	*	*
2r	.	.	1D/	e-	.	.
.	.	.	.	.	4E/	.
2F\	e-	.	.	.	2D/	.
=39-	=39-	=39-	=39-	=39-	=39-	=39-
1E\	-ter-	.	1C/	-ter-	1G/	e-
2D/	.	.	1D/	.	2F/	-ter-
2.F\	.	.	.	.	2.A/	.
=40-	=40-	=40-	=40-	=40-	=40-	=40-
*	*	*	*lig	*	*	*
.	.	.	1F\	-na-	.	.
4E/	.	.	.	.	4G/	.
2.D/	.	.	.	.	2.F/	-na-
.	.	.	1D/	.	.	.
4C/	.	.	.	.	4E/	.
1BB-/	.	.	.	.	4D/	.
.	.	.	.	.	4C/	.
*	*	*	*Xlig	*	*	*
=41-	=41-	=41-	=41-	=41-	=41-	=41-
.	.	.	1F\	.	2D/	.
4AA/	.	.	.	.	2d\	.
4GG/	.	.	.	.	.	.
2FF/	.	.	0F\	-les	2c\	.
2BB-/	.	.	.	.	2d\	-les
=42-	=42-	=42-	=42-	=42-	=42-	=42-
*custos:BB	*	*	*	*	*	*
2FF/	.	.	.	.	2c\	.
!LO:LB:g=original	!	!	!	!	!	!
2.BB-/	-na-	.	.	.	2.d\	et
.	.	.	0D/	.	.	.
*	*	*	*	*	*custos:f	*
4C/	.	.	.	.	4e\	.
!	!	!	!	!	!LO:LB:g=original	!
*	*	*	*	*	*clefC3	*
2.D/	.	.	.	.	2.f\	.
=43-	=43-	=43-	=43-	=43-	=43-	=43-
*	*	*	*custos:F	*	*	*
4C/	.	.	.	.	4e\	.
2BB-/	.	.	.	.	2d/	.
1AA/	.	.	1F\	.	1c\	.
!	!	!	!LO:LB:g=original	!	!	!
=44-	=44-	=44-	=44-	=44-	=44-	=44-
*	*	*	*lig	*	*	*
1GG/	.	.	1G\	.	2B-/	.
.	.	.	.	.	2G/	.
1D\	-les	.	1G\	.	1A/	.
*	*	*	*Xlig	*	*	*
=45-	=45-	=45-	=45-	=45-	=45-	=45-
1GG/	.	.	1G\	.	2G/	.
.	.	.	.	.	2d/	.
*	*	*	*lig	*	*	*
2r	.	.	1A\	.	2c/	.
1D\	et	.	.	.	2.d/	.
=46-	=46-	=46-	=46-	=46-	=46-	=46-
.	.	.	1F\	.	.	.
.	.	.	.	.	4e\	.
2D/	in-	.	.	.	1f\	.
*	*	*	*Xlig	*	*	*
*	*	*	*lig	*	*	*
1C/	-tro-	.	1G\	.	.	.
.	.	.	.	.	2e\	.
=47-	=47-	=47-	=47-	=47-	=47-	=47-
2.D/	-i-	.	1F\	.	1f\	.
4E/	.	.	.	.	.	.
*	*	*	*Xlig	*	*	*
4F\	.	.	1F\	et	1c\	.
4G\	.	.	.	.	.	.
2.A\	.	.	.	.	.	.
=48-	=48-	=48-	=48-	=48-	=48-	=48-
.	.	.	1F\	in-	2r	.
4G\	.	.	.	.	.	.
4F\	.	.	.	.	2c/	et
*custos:D	*	*	*	*	*	*
4E\	.	.	.	.	.	.
!LO:LB:g=original	!	!	!	!	!	!
2D/	.	.	1F\	-tro-	2d/	.
*	*	*	*	*	*custos:d	*
2.F/	.	.	.	.	2c/	ni-
!	!	!	!	!	!LO:LB:g=original	!
=49-	=49-	=49-	=49-	=49-	=49-	=49-
*	*	*	*lig	*	*	*
.	.	.	1F\	-i-	1d\	-tro-
4E/	.	.	.	.	.	.
1D\	.	.	.	.	.	.
.	.	.	1E/	.	1r	.
2C/	.	.	.	.	.	.
*	*	*	*Xlig	*	*	*
=50-	=50-	=50-	=50-	=50-	=50-	=50-
1BB-/	.	.	1G\	.	2r	.
.	.	.	.	.	2d\	i-
*	*	*	*lig	*	*	*
2AA/	.	.	1A\	.	2c\	.
2.FF/	.	.	.	.	2.f\	.
=51-	=51-	=51-	=51-	=51-	=51-	=51-
.	.	.	1F\	.	.	.
4GG/	.	.	.	.	4e\	.
4AA/	.	.	.	.	2d\	.
4BB-/	.	.	.	.	.	.
*	*	*	*Xlig	*	*	*
1C/	.	.	1E/	.	1c\	.
=52-	=52-	=52-	=52-	=52-	=52-	=52-
1GG/	.	.	1G\	.	2B-/	.
.	.	.	.	.	2G/	.
*lig	*	*	*	*	*	*
1D\	.	.	1F\	.	1A/	.
=53-	=53-	=53-	=53-	=53-	=53-	=53-
1GG/	.	.	1G\	.	2G/	.
.	.	.	.	.	2B-/	.
*Xlig	*	*	*	*	*	*
2r	.	.	1F\	.	1A/	.
1D\	.	.	.	.	.	.
=54-	=54-	=54-	=54-	=54-	=54-	=54-
.	.	.	1E/	.	1G/	.
2C/	.	.	.	.	.	.
2D/	.	.	1D/	.	2F/	.
2.F/	.	.	.	.	2.D/	bit
=55-	=55-	=55-	=55-	=55-	=55-	=55-
.	.	.	1D/	-bit	.	.
*custos:D	*	*	*	*	*	*
4E/	.	.	.	.	4E/	.
*	*	*	*	*	*custos:D	*
!LO:PB:g=original	!	!	!	!	!	!
2.D/	.	.	.	.	2F/	.
!	!	!	!	!	!LO:LB:g=original	!
.	.	.	1F\	.	2.D/	.
4E/	.	.	.	.	.	.
4F/	.	.	.	.	.	.
4G\	.	.	.	.	4E/	.
=56-	=56-	=56-	=56-	=56-	=56-	=56-
2A\	.	.	1D/	.	4F/	.
.	.	.	.	.	4G/	.
2F/	.	.	.	.	4A/	.
.	.	.	.	.	4B-/	.
1G\	.	.	1C/	.	2.c\	.
.	.	.	.	.	4B-/	.
=57-	=57-	=57-	=57-	=57-	=57-	=57-
2F/	.	.	1D/	.	2A/	.
2.D/	-bit	.	.	.	2.d\	.
*	*	*	*lig	*	*	*
.	.	.	1F\	.	.	.
4E/	.	.	.	.	4c\	.
2.F/	.	.	.	.	2.d\	.
=58-	=58-	=58-	=58-	=58-	=58-	=58-
*	*	*	*custos:F	*	*	*
.	.	.	1D/	.	.	.
4E/	.	.	.	.	4c\	.
4D/	.	.	.	.	4B-/	.
4C/	.	.	.	.	4A/	.
*	*	*	*Xlig	*	*	*
!	!	!	!LO:LB:g=original	!	!	!
1D\	.	.	1F\	.	2B-/	.
.	.	.	.	.	1A\	.
=59-	=59-	=59-	=59-	=59-	=59-	=59-
2r	.	.	1F\	.	.	.
2D/	.	.	.	.	4G/	.
.	.	.	.	.	4F/	.
*	*	*	*	*	*custos:F	*
1C/	.	.	1E/	.	1G/	.
!	!	!	!	!	!LO:LB:g=original	!
=60-	=60-	=60-	=60-	=60-	=60-	=60-
2.F\	.	.	1D/	.	2.F/	.
4E/	.	.	.	.	4G/	.
*	*	*	*lig	*	*	*
4D/	.	.	1F\	.	2A/	.
*custos:BB	*	*	*	*	*	*
4C/	.	.	.	.	.	.
!LO:LB:g=original	!	!	!	!	!	!
1BB-/	.	.	.	.	2B-/	.
=61-	=61-	=61-	=61-	=61-	=61-	=61-
.	.	.	1C/	.	1c\	.
2AA/	.	.	.	.	.	.
*	*	*	*Xlig	*	*	*
!	!	!	!LO:SIC:s:v=1BB-	!	!	!
2.BB-/	rex	.	1BB/	.	2d/	.
.	.	.	.	.	1f\	.
4AA/	.	.	.	.	.	.
=62-	=62-	=62-	=62-	=62-	=62-	=62-
!	!	!	!LO:SIC:s:v=1BB-	!	!	!
1GG/	.	.	1BB/	rex	.	.
.	.	.	.	.	2e/	rex
1FF/	.	.	1C/	.	2.f\	.
.	.	.	.	.	4e/	.
=63-	=63-	=63-	=63-	=63-	=63-	=63-
2BB-/	.	.	1D/	.	2d/	.
4AA/	.	.	.	.	4c/	.
4GG/	.	.	.	.	4B-/	.
2FF/	.	.	1F\	.	2A/	.
2GG/	.	.	.	.	1d\	.
=64-	=64-	=64-	=64-	=64-	=64-	=64-
1AA/	.	.	1E/	.	.	.
.	.	.	.	.	2c/	.
2r	.	.	1D/	.	1d\	.
2.A\	glo	.	.	.	.	.
=65-	=65-	=65-	=65-	=65-	=65-	=65-
.	.	.	1F\	.	1c\	.
4G\	.	.	.	.	.	.
2F\	.	.	.	.	.	.
1E\	.	.	1C/	glo-	2r	.
*	*	*	*	*	*custos:f	*
.	.	.	.	.	2g\	glo-
!	!	!	!	!	!LO:PB:g=original	!
=66-	=66-	=66-	=66-	=66-	=66-	=66-
2F\	.	.	1D/	.	1f\	.
2.D/	.	.	.	.	.	.
*	*	*	*lig	*	*	*
.	.	.	1F\	-ri-	1d\	.
4E/	.	.	.	.	.	.
4F/	.	.	.	.	.	.
4G\	.	.	.	.	.	.
=67-	=67-	=67-	=67-	=67-	=67-	=67-
*custos:A	*	*	*	*	*	*
1A\	.	.	1D/	.	1f\	.
!LO:LB:g=original	!	!	!	!	!	!
*	*	*	*Xlig	*	*	*
2A\	.	.	1F\	.	1c\	.
1F\	.	.	.	.	.	.
=68-	=68-	=68-	=68-	=68-	=68-	=68-
.	.	.	1G\	.	2r	.
4E/	.	.	.	.	2.g\	.
4D/	.	.	.	.	.	.
*	*	*	*lig	*	*	*
1E\	.	.	1G\	-e	.	.
.	.	.	.	.	4f\	.
.	.	.	.	.	2e\	.
=69-	=69-	=69-	=69-	=69-	=69-	=69-
1D\	.	.	1F\	.	1f\	.
*	*	*	*Xlig	*	*	*
2C/	.	.	1G\	.	2e/	.
2BB-/	.	.	.	.	2d/	.
=70-	=70-	=70-	=70-	=70-	=70-	=70-
2AA/	.	.	1A\	.	2c/	.
2FF/	.	.	.	.	1f\	.
1C/	.	.	0G\	.	.	.
.	.	.	.	.	4e/	.
.	.	.	.	.	4d/	.
=71-	=71-	=71-	=71-	=71-	=71-	=71-
1C/	.	.	.	.	1e\	.
*	*	*	*custos:D	*	*	*
0FF/;	.	.	0F\	.	0f\;	.
=72-	=72-	=72-	=72-	=72-	=72-	=72-
!	!	!	!	!	!LO:TX:a:t=Quis aſcen\ndet \nTacet\nmoreſ cewat\n           Tenola	!
!	!	!	!LO:LB:g=original	!	!	!
1F\	Quis	.	1D/	Qv-	1ryy	.
=73-	=73-	=73-	=73-	=73-	=73-	=73-
2F/	as-	.	1D/	-is	0ryy	.
2.D/	.	.	.	.	.	.
*	*	*	*lig	*	*	*
.	.	.	1F\	a-	.	.
4C/	.	.	.	.	.	.
2BB-/	.	.	.	.	.	.
=74-	=74-	=74-	=74-	=74-	=74-	=74-
*custos:D	*	*	*	*	*	*
1C/	.	.	1E/	.	0ryy	.
!LO:LB:g=original	!	!	!	!	!	!
*	*	*	*Xlig	*	*	*
1D\	scen-	.	1F\	-ſcen-	.	.
=75-	=75-	=75-	=75-	=75-	=75-	=75-
2GG/	.	.	1G\	.	0ryy	.
2.G\	-det	.	.	.	.	.
.	.	.	1G\,	-det	.	.
4F\	.	.	.	.	.	.
4E\	.	.	.	.	.	.
4D/	.	.	.	.	.	.
=76-	=76-	=76-	=76-	=76-	=76-	=76-
2.C/	in	.	1G\	in	0ryy	.
4D/	.	.	.	.	.	.
4E/	.	.	1G\	mo(n)-	.	.
4F\	.	.	.	.	.	.
2G\	mon-	.	.	.	.	.
=77-	=77-	=77-	=77-	=77-	=77-	=77-
2E/	-tem	.	1G\,	-te(m)	0ryy	.
1C/	do-	.	.	.	.	.
*	*	*	*lig	*	*	*
.	.	.	1G\	do-	.	.
2C/	.	.	.	.	.	.
=78-	=78-	=78-	=78-	=78-	=78-	=78-
1D\	.	.	1F\	.	0ryy	.
*	*	*	*Xlig	*	*	*
1E\	.	.	1G\	.	.	.
=79-	=79-	=79-	=79-	=79-	=79-	=79-
1D\	.	.	1A\	.	0ryy	.
2r	.	.	1B\	.	.	.
2.G\	.	.	.	.	.	.
=80-	=80-	=80-	=80-	=80-	=80-	=80-
*	*	*	*lig	*	*	*
.	.	.	1G\	.	0ryy	.
4F\	.	.	.	.	.	.
*custos:F	*	*	*	*	*	*
2E/	.	.	.	.	.	.
!LO:LB:g=original	!	!	!	!	!	!
2.F\	.	.	1F\	.	.	.
4G\	.	.	.	.	.	.
*	*	*	*Xlig	*	*	*
=81-	=81-	=81-	=81-	=81-	=81-	=81-
1A\	.	.	1F\	-mi-	0ryy	.
2r	.	.	1G\	.	.	.
1G\	mi-	.	.	.	.	.
=82-	=82-	=82-	=82-	=82-	=82-	=82-
*	*	*	*lig	*	*	*
.	.	.	1A\	.	0ryy	.
2F\	.	.	.	.	.	.
2G\	.	.	1G\	.	.	.
2E/	.	.	.	.	.	.
*	*	*	*Xlig	*	*	*
=83-	=83-	=83-	=83-	=83-	=83-	=83-
2D/	.	.	1A\	.	0ryy	.
2.F\	.	.	.	.	.	.
*	*	*	*custos:B	*	*	*
.	.	.	1A\	-ni	.	.
4E/	.	.	.	.	.	.
2D/	ni	.	.	.	.	.
!	!	!	!LO:LB:g=origina	!	!	!
=84-	=84-	=84-	=84-	=84-	=84-	=84-
*	*	*	*lig	*	*	*
1G\	.	.	1B\	.	0ryy	.
1F\	.	.	1A\	.	.	.
*	*	*	*Xlig	*	*	*
=85-	=85-	=85-	=85-	=85-	=85-	=85-
2.B-\	.	.	1G\	.	0ryy	.
4A\	.	.	.	.	.	.
*	*	*	*lig	*	*	*
4G\	.	.	1B\	.	.	.
4F\	.	.	.	.	.	.
1G\	.	.	.	.	.	.
=86-	=86-	=86-	=86-	=86-	=86-	=86-
.	.	.	1A\	.	0ryy	.
2F/	.	.	.	.	.	.
*custos:G	*	*	*	*	*	*
*	*	*	*Xlig	*	*	*
2G\	.	.	1G\,	.	.	.
!LO:PB:g=original	!	!	!	!	!	!
2.B-\	.	.	.	.	.	.
=87-	=87-	=87-	=87-	=87-	=87-	=87-
.	.	.	1G\	qut	0ryy	.
4A\	.	.	.	.	.	.
2.G\	.	.	.	.	.	.
*	*	*	*lig	*	*	*
.	.	.	1B\	q(ui)s	.	.
4F/	.	.	.	.	.	.
2.E-X/	.	.	.	.	.	.
=88-	=88-	=88-	=88-	=88-	=88-	=88-
.	.	.	1A\	.	0ryy	.
4D/	.	.	.	.	.	.
2C/	.	.	.	.	.	.
*	*	*	*Xlig	*	*	*
1F\	.	.	1A\	.	.	.
=89-	=89-	=89-	=89-	=89-	=89-	=89-
2r	.	.	1B\	.	0ryy	.
2G\	aut	.	.	.	.	.
*	*	*	*lig	*	*	*
2F/	.	.	1A\	.	.	.
2D/	.	.	.	.	.	.
=90-	=90-	=90-	=90-	=90-	=90-	=90-
2E/	quis	.	1G\	.	0ryy	.
2.C/	.	.	.	.	.	.
*	*	*	*Xlig	*	*	*
.	.	.	1G\	Sta-	.	.
4D/	.	.	.	.	.	.
4E/	.	.	.	.	.	.
4F\	.	.	.	.	.	.
=91-	=91-	=91-	=91-	=91-	=91-	=91-
2G\	.	.	1G\,	-b(i)t	0ryy	.
2.GG/	.	.	.	.	.	.
.	.	.	1G\,	in	.	.
4AA/	.	.	.	.	.	.
*custos:C	*	*	*	*	*	*
2BB-/	.	.	.	.	.	.
!LO:LB:g=original	!	!	!	!	!	!
=92-	=92-	=92-	=92-	=92-	=92-	=92-
2C/	sta-	.	1G\	lo-	0ryy	.
2GG/	-bit	.	.	.	.	.
2C/	in	.	1G\,	-co	.	.
2BB-/	loc-	.	.	.	.	.
=93-	=93-	=93-	=93-	=93-	=93-	=93-
2C/	.	.	1G\	S(an)c-	0ryy	.
!LO:TX:t=P:problem=skreślony tekst stabit	!	!	!	!	!	!
2GG/	.	.	.	.	.	.
1C/	.	.	1G\	-to	.	.
=94-	=94-	=94-	=94-	=94-	=94-	=94-
*lig	*	*	*	*	*	*
1AA/	-o	san-	1A\,	.	0ryy	.
*	*	*	*lig	*	*	*
1D\	.	-cto	1A\	e-	.	.
*Xlig	*	*	*	*	*	*
=95-	=95-	=95-	=95-	=95-	=95-	=95-
2r	.	.	1G\	.	0ryy	.
2D/	.	.	.	.	.	.
!LO:TX:t=P:problem=skreślony tekst loco	!	!	!	!	!	!
*	*	*	*Xlig	*	*	*
2.AA/	.	.	1A\	.	.	.
4BB-/	.	.	.	.	.	.
=96-	=96-	=96-	=96-	=96-	=96-	=96-
*	*	*	*custos:F	*	*	*
1C/	.	.	1G\	.	0ryy	.
!	!	!	!LO:PB:g=origina	!	!	!
2.D/	San-	.	0F\	.	.	.
4E/	.	.	.	.	.	.
=97-	=97-	=97-	=97-	=97-	=97-	=97-
4F\	cto	.	.	.	0ryy	.
4G\	.	.	.	.	.	.
2A\	e-	.	.	.	.	.
2B-\	.	.	1D/	.	.	.
2.A\	.	.	.	.	.	.
=98-	=98-	=98-	=98-	=98-	=98-	=98-
.	.	.	0F\	.	0ryy	.
*custos:F	*	*	*	*	*	*
4G\	.	.	.	.	.	.
!LO:LB:g=original	!	!	!	!	!	!
2.F\	.	.	.	.	.	.
4G\	.	.	.	.	.	.
2A\	.	.	.	.	.	.
=99-	=99-	=99-	=99-	=99-	=99-	=99-
2.F\	.	.	1D/	.	0ryy	.
4G\	.	.	.	.	.	.
1D\	.	.	1F\	.	.	.
=100-	=100-	=100-	=100-	=100-	=100-	=100-
1r	.	.	1G\	.	0ryy	.
1D\	.	.	1A\	.	.	.
=101-	=101-	=101-	=101-	=101-	=101-	=101-
*lig	*	*	*	*	*	*
1GG/	.	.	1G\	.	0ryy	.
1D\,	.	.	1F\,	.	.	.
*Xlig	*	*	*	*	*	*
=102-	=102-	=102-	=102-	=102-	=102-	=102-
2r	.	.	1A\	.	0ryy	.
1F\	.	.	.	.	.	.
*	*	*	*lig	*	*	*
.	.	.	1G\	.	.	.
2E/	.	.	.	.	.	.
=103-	=103-	=103-	=103-	=103-	=103-	=103-
2F/	.	.	1F\	.	0ryy	.
2D/	.	.	.	.	.	.
*	*	*	*Xlig	*	*	*
*	*	*	*lig	*	*	*
1C/	-ius  .	.	1G\	.	.	.
=104-	=104-	=104-	=104-	=104-	=104-	=104-
2r	.	.	1D/	.	0ryy	.
2.F\	ni .	.	.	.	.	.
*	*	*	*Xlig	*	*	*
.	.	.	1D/,	-ius	.	.
*custos:A	*	*	*	*	*	*
4G\	.	.	.	.	.	.
!LO:LB:g=original	!	!	!	!	!	!
2.A\	.	.	.	.	.	.
=105-	=105-	=105-	=105-	=105-	=105-	=105-
.	.	.	1F\	in-	0ryy	.
4G\	.	.	.	.	.	.
4F\	.	.	.	.	.	.
4E\	.	.	.	.	.	.
2D/	.	.	1F\	-no-	.	.
2.F\	.	.	.	.	.	.
=106-	=106-	=106-	=106-	=106-	=106-	=106-
.	.	.	1F\	-cens	0ryy	.
4E/	.	.	.	.	.	.
4D/	.	.	.	.	.	.
4C/	.	.	.	.	.	.
2BB-/	.	.	1G\	.	.	.
2.C/	.	.	.	.	.	.
=107-	=107-	=107-	=107-	=107-	=107-	=107-
.	.	.	1G\	ma-	0ryy	.
4BB-/	renſ	.	.	.	.	.
!LO:TX:t=P:problem=skreślony tekst ius	!	!	!	!	!	!
2GG/	.	.	.	.	.	.
1D\	.	.	1F\	.	.	.
=108-	=108-	=108-	=108-	=108-	=108-	=108-
*	*	*	*lig	*	*	*
2r	.	.	1E/	.	0ryy	.
2.C/	mno	.	.	.	.	.
.	.	.	1D/	.	.	.
4D/	.	.	.	.	.	.
2E/	.	.	.	.	.	.
!LO:TX:t=P:problem=skreślony tekst cens	!	!	!	!	!	!
*	*	*	*Xlig	*	*	*
=109-	=109-	=109-	=109-	=109-	=109-	=109-
2F/	.	.	1D/	.	0ryy	.
2.D/	ma	.	.	.	.	.
.	.	.	1F\	.	.	.
*custos:F	*	*	*	*	*	*
4E/	.	.	.	.	.	.
!LO:LB:g=original	!	!	!	!	!	!
2F\	.	.	.	.	.	.
=110-	=110-	=110-	=110-	=110-	=110-	=110-
2G\	.	.	1E/	.	0ryy	.
2.E/	ma	.	.	.	.	.
*	*	*	*custos:D	*	*	*
.	.	.	1D/	.	.	.
4F\	.	.	.	.	.	.
2G\	.	.	.	.	.	.
!	!	!	!LO:LB:g=origina	!	!	!
=111-	=111-	=111-	=111-	=111-	=111-	=111-
2F\	.	.	1D/	.	0ryy	.
2.D/	.	.	.	.	.	.
*	*	*	*lig	*	*	*
.	.	.	1F\	.	.	.
4E/	.	.	.	.	.	.
2F\	.	.	.	.	.	.
=112-	=112-	=112-	=112-	=112-	=112-	=112-
2G\	.	.	1E/	.	0ryy	.
2.E/	.	.	.	.	.	.
*	*	*	*Xlig	*	*	*
.	.	.	1G\	.	.	.
4F\	.	.	.	.	.	.
2G\	.	.	.	.	.	.
=113-	=113-	=113-	=113-	=113-	=113-	=113-
2.F\	.	.	1A\	.	0ryy	.
4E/	.	.	.	.	.	.
4D/	.	.	1F\	.	.	.
4C/	.	.	.	.	.	.
1D\	.	.	.	.	.	.
=114-	=114-	=114-	=114-	=114-	=114-	=114-
*	*	*	*lig	*	*	*
.	.	.	1E/	.	0ryy	.
*custos:D	*	*	*	*	*	*
2C/	.	.	.	.	.	.
!LO:PB:g=original	!	!	!	!	!	!
1D\	.	.	1D/	.	.	.
*	*	*	*Xlig	*	*	*
=115-	=115-	=115-	=115-	=115-	=115-	=115-
2r	.	.	1D/	-in-	0ryy	.
2GG/	.	.	.	.	.	.
2.D/	.	.	1D/	-bus	.	.
4C/	.	.	.	.	.	.
=116-	=116-	=116-	=116-	=116-	=116-	=116-
2BB-/	.	.	1F\	.	0ryy	.
2AA/	.	.	.	.	.	.
1GG/	.	.	1D/	.	.	.
=117-	=117-	=117-	=117-	=117-	=117-	=117-
1G\	.	.	1C/	.	0ryy	.
2.F\	.	.	1D/	.	.	.
4E/	.	.	.	.	.	.
=118-	=118-	=118-	=118-	=118-	=118-	=118-
*	*	*	*lig	*	*	*
2D/	.	.	1F\	.	0ryy	.
2.A\	.	.	.	.	.	.
.	.	.	1D/	.	.	.
4G/	.	.	.	.	.	.
4F/	.	.	.	.	.	.
4E/	.	.	.	.	.	.
*	*	*	*Xlig	*	*	*
=119-	=119-	=119-	=119-	=119-	=119-	=119-
2.D/	.	.	0F\	.	0ryy	.
4C/	.	.	.	.	.	.
4BB-/	.	.	.	.	.	.
4AA/	.	.	.	.	.	.
2BB-/	.	.	.	.	.	.
=120-	=120-	=120-	=120-	=120-	=120-	=120-
1C/	.	.	1E/	.	0ryy	.
*custos:D	*	*	*	*	*	*
1GG/	.	.	1D/	.	.	.
!LO:LB:g=original	!	!	!	!	!	!
=121-	=121-	=121-	=121-	=121-	=121-	=121-
1D\	.	.	1F\	.	0ryy	.
1E\	.	.	1C/	.	.	.
=122-	=122-	=122-	=122-	=122-	=122-	=122-
2D/	.	.	1BB/,	.	0ryy	.
2.F\	.	.	.	.	.	.
.	.	.	1BB/	et	.	.
4E/	.	.	.	.	.	.
2D/	.	.	.	.	.	.
=123-	=123-	=123-	=123-	=123-	=123-	=123-
1E\	.	.	1C/	.	0ryy	.
2r	.	.	1D/	.	.	.
2.D/	et	.	.	.	.	.
=124-	=124-	=124-	=124-	=124-	=124-	=124-
.	.	.	1F\	.	0ryy	.
4C/	.	.	.	.	.	.
2D/	.	.	.	.	.	.
*	*	*	*custos:D	*	*	*
1AA/	.	.	1E/	.	.	.
!	!	!	!LO:LB:g=origina	!	!	!
=125-	=125-	=125-	=125-	=125-	=125-	=125-
2r	.	.	1D/	.	0ryy	.
2.A\	~~~	.	.	.	.	.
.	.	.	1F\	.	.	.
4G\	.	.	.	.	.	.
2A\	.	.	.	.	.	.
=126-	=126-	=126-	=126-	=126-	=126-	=126-
1G\	.	.	1C/	mu(n)-	0ryy	.
2r	.	.	1D/	-do	.	.
2.F\	.	.	.	.	.	.
=127-	=127-	=127-	=127-	=127-	=127-	=127-
*	*	*	*lig	*	*	*
.	.	.	1F\	cor-	0ryy	.
*custos:D	*	*	*	*	*	*
4E/	.	.	.	.	.	.
!LO:LB:g=original	!	!	!	!	!	!
2.D/	.	.	.	.	.	.
.	.	.	1D/	.	.	.
4E/	.	.	.	.	.	.
2F/	.	.	.	.	.	.
*	*	*	*Xlig	*	*	*
=128-	=128-	=128-	=128-	=128-	=128-	=128-
1D\	.	.	1F\	.	0ryy	.
1C/	.	.	1G\	-de	.	.
=129-	=129-	=129-	=129-	=129-	=129-	=129-
1C/	do	.	1G\	.	0ryy	.
2r	.	.	1A\	.	.	.
2.D/	.	.	.	.	.	.
=130-	=130-	=130-	=130-	=130-	=130-	=130-
*	*	*	*lig	*	*	*
.	.	.	1F\	.	0ryy	.
4E/	.	.	.	.	.	.
2F/	.	.	.	.	.	.
1G\	.	.	1E/	.	.	.
*	*	*	*Xlig	*	*	*
=131-	=131-	=131-	=131-	=131-	=131-	=131-
2A\	.	.	1F\	.	0ryy	.
2D/	.	.	.	.	.	.
2r	.	.	1G\	.	.	.
2.G\	roz	.	.	.	.	.
=132-	=132-	=132-	=132-	=132-	=132-	=132-
.	.	.	1C/	.	0ryy	.
4F\	.	.	.	.	.	.
2E/	.	.	.	.	.	.
2F/	.	.	1D/	.	.	.
2.D/	.	.	.	.	.	.
=133-	=133-	=133-	=133-	=133-	=133-	=133-
.	.	.	0F\	.	0ryy	.
4C/	.	.	.	.	.	.
*custos:AA	*	*	*	*	*	*
2BB-/	.	.	.	.	.	.
!LO:LB:g=original	!	!	!	!	!	!
2AA/	.	.	.	.	.	.
2BB-/	.	.	.	.	.	.
=134-	=134-	=134-	=134-	=134-	=134-	=134-
*	*	*	*lig	*	*	*
2C/	.	.	1A\	.	0ryy	.
2D/	.	.	.	.	.	.
1GG/	.	.	1G\	.	.	.
*	*	*	*Xlig	*	*	*
=135-	=135-	=135-	=135-	=135-	=135-	=135-
2AA/	.	.	0F\	.	0ryy	.
2.BB-/	.	.	.	.	.	.
4AA/	.	.	.	.	.	.
2FF/	.	.	.	.	.	.
=136-	=136-	=136-	=136-	=136-	=136-	=136-
2GG/	.	.	1E/	.	0ryy	.
2AA/	.	.	.	.	.	.
2.BB-/	.	.	1D/	.	.	.
4AA/	.	.	.	.	.	.
=137-	=137-	=137-	=137-	=137-	=137-	=137-
1GG/	.	.	1E/	.	0ryy	.
1FF/	.	.	0F\	.	.	.
=138-	=138-	=138-	=138-	=138-	=138-	=138-
2r	.	.	.	.	0ryy	.
1F\	.	.	.	.	.	.
.	.	.	[1Dl/	.	.	.
2.D/	.	.	.	.	.	.
=139-	=139-	=139-	=139-	=139-	=139-	=139-
.	.	.	0D/_	.	0ryy	.
4E/	.	.	.	.	.	.
2F/	.	.	.	.	.	.
*custos:BB	*	*	*	*	*	*
2D/	.	.	.	.	.	.
!LO:LB:g=original	!	!	!	!	!	!
2.BB-/	.	.	.	.	.	.
=140-	=140-	=140-	=140-	=140-	=140-	=140-
.	.	.	0D/_	.	0ryy	.
4C/	.	.	.	.	.	.
2D/	.	.	.	.	.	.
2BB-/	.	.	.	.	.	.
2.GG/	.	.	.	.	.	.
=141-	=141-	=141-	=141-	=141-	=141-	=141-
.	.	.	0D/_	.	0ryy	.
4AA/	.	.	.	.	.	.
2BB-/	.	.	.	.	.	.
2.GG/	.	.	.	.	.	.
4FF/	.	.	.	.	.	.
=142-	=142-	=142-	=142-	=142-	=142-	=142-
4GG/	.	.	0D/_	.	0ryy	.
4AA/	.	.	.	.	.	.
4BB-/	.	.	.	.	.	.
4C/	.	.	.	.	.	.
1D\	.	.	.	.	.	.
=143-	=143-	=143-	=143-	=143-	=143-	=143-
1D;\	.	.	1D/]	.	1ryy	.
==-	==-	==-	==-	==-	==-	==-
*-	*-	*-	*-	*-	*-	*-
!!!system-decoration: [(s1,s2,s3)]
!!!RDF**kern: l = terminal long
!!!ENC: Filip Voros
!!!END: 2021-12-27
!!!ENC: Leszek Kubiak
!!!END: 2021-12-29
